public/assets/favicon.svg

<!-- <svg xmlns="http://www.w3.org/2000/svg" fill="none" viewBox="0 0 128 128">
    <path d="M50.4 78.5a75.1 75.1 0 0 0-28.5 6.9l24.2-65.7c.7-2 1.9-3.2 3.4-3.2h29c1.5 0 2.7 1.2 3.4 3.2l24.2 65.7s-11.6-7-28.5-7L67 45.5c-.4-1.7-1.6-2.8-2.9-2.8-1.3 0-2.5 1.1-2.9 2.7L50.4 78.5Zm-1.1 28.2Zm-4.2-20.2c-2 6.6-.6 15.8 4.2 20.2a17.5 17.5 0 0 1 .2-.7 5.5 5.5 0 0 1 5.7-4.5c2.8.1 4.3 1.5 4.7 4.7.2 1.1.2 2.3.2 3.5v.4c0 2.7.7 5.2 2.2 7.4a13 13 0 0 0 5.7 4.9v-.3l-.2-.3c-1.8-5.6-.5-9.5 4.4-12.8l1.5-1a73 73 0 0 0 3.2-2.2 16 16 0 0 0 6.8-11.4c.3-2 .1-4-.6-6l-.8.6-1.6 1a37 37 0 0 1-22.4 2.7c-5-.7-9.7-2-13.2-6.2Z" />
    <style>
        path { fill: #000; }
        @media (prefers-color-scheme: dark) {
            path { fill: #FFF; }
        }
    </style>
</svg> -->

<svg width="153" height="153" viewBox="0 0 153 153" fill="none" xmlns="http://www.w3.org/2000/svg">
<path d="M29.6501 76.44C29.6501 50.43 50.7301 29.35 76.7401 29.35C102.75 29.35 123.83 50.43 123.83 76.44H152.61C152.61 34.54 118.64 0.570007 76.7401 0.570007C34.8401 0.570007 0.860107 34.54 0.860107 76.44H29.6401H29.6501Z" fill="#006D68"/>
<path id="change-color" d="M152.61 76.44H123.83C123.83 76.44 123.79 78.71 123.71 79.82C121.98 104.25 101.61 123.53 76.7401 123.53C51.7701 123.53 31.3401 104.1 29.7501 79.53C29.6801 78.51 29.6501 76.44 29.6501 76.44H0.870117C0.870117 76.44 0.890117 78.49 0.930117 79.51C2.54012 119.99 35.8701 152.31 76.7401 152.31C117.4 152.31 150.59 120.33 152.52 80.15C152.58 78.92 152.61 76.44 152.61 76.44Z" fill="#FF002B"/>
<path d="M76.9301 112.38V68.17L39.3801 44.2L39.5801 88.41L76.9301 112.38Z" fill="#CEE098"/>
<path d="M76.9302 112.38V68.17L114.29 44.2V88.41L76.9302 112.38Z" fill="#849E2A"/>
<path d="M76.9302 113.38C76.7602 113.38 76.6002 113.34 76.4502 113.26C76.1302 113.08 75.9302 112.75 75.9302 112.38V68.17C75.9302 67.83 76.1002 67.51 76.3902 67.33L113.74 43.36C114.05 43.16 114.44 43.15 114.76 43.32C115.08 43.5 115.28 43.83 115.28 44.2V88.41C115.28 88.75 115.11 89.07 114.82 89.25L77.4702 113.22C77.3102 113.33 77.1202 113.38 76.9302 113.38ZM77.9302 68.71V110.54L113.28 87.86V46.03L77.9302 68.71Z" fill="white"/>
<path d="M114.29 44.2L76.9301 68.17L39.5801 44.2L76.9301 20.23L114.29 44.2Z" fill="#ACCA53"/>
<path d="M76.9301 69.17C76.7401 69.17 76.5501 69.12 76.3901 69.01L39.0401 45.04C38.7501 44.86 38.5801 44.54 38.5801 44.2C38.5801 43.86 38.7501 43.54 39.0401 43.36L76.3901 19.39C76.7201 19.18 77.1401 19.18 77.4701 19.39L114.82 43.36C115.11 43.54 115.28 43.86 115.28 44.2C115.28 44.54 115.11 44.86 114.82 45.04L77.4701 69.01C77.3001 69.12 77.1201 69.17 76.9301 69.17ZM41.4301 44.2L76.9301 66.98L112.43 44.2L76.9301 21.42L41.4301 44.2Z" fill="white"/>
<path d="M58.0602 57.18C57.7302 57.18 57.4102 57.02 57.2202 56.72C56.9202 56.26 57.0602 55.64 57.5202 55.34L94.8702 31.37C95.3302 31.07 95.9502 31.21 96.2502 31.67C96.5502 32.13 96.4102 32.75 95.9502 33.05L58.6002 57.02C58.4302 57.13 58.2502 57.18 58.0602 57.18Z" fill="white"/>
<path d="M76.9302 91.55C76.6002 91.55 76.2802 91.39 76.0902 91.09C75.7902 90.63 75.9302 90.01 76.3902 89.71L113.07 66.17C113.53 65.87 114.15 66.01 114.45 66.47C114.75 66.93 114.61 67.55 114.15 67.85L77.4702 91.39C77.3002 91.5 77.1202 91.55 76.9302 91.55Z" fill="#003834"/>
<path d="M96.1101 56.86C95.9301 56.86 95.7501 56.81 95.5901 56.71L57.6401 33.37C57.1701 33.08 57.0201 32.46 57.3101 31.99C57.6001 31.52 58.2101 31.37 58.6901 31.66L96.6401 55C97.1101 55.29 97.2601 55.91 96.9701 56.38C96.7801 56.69 96.4501 56.86 96.1201 56.86H96.1101Z" fill="white"/>
<path d="M76.9301 69.17C76.7401 69.17 76.5501 69.12 76.3901 69.01L39.0401 45.04C38.7501 44.86 38.5801 44.54 38.5801 44.2C38.5801 43.86 38.7501 43.54 39.0401 43.36L76.3901 19.39C76.7201 19.18 77.1401 19.18 77.4701 19.39L114.82 43.36C115.11 43.54 115.28 43.86 115.28 44.2C115.28 44.54 115.11 44.86 114.82 45.04L77.4701 69.01C77.3001 69.12 77.1201 69.17 76.9301 69.17ZM41.4301 44.2L76.9301 66.98L112.43 44.2L76.9301 21.42L41.4301 44.2Z" fill="white"/>
<path d="M96.8701 100.49C96.3201 100.49 95.8701 100.04 95.8701 99.49V55.6C95.8701 55.05 96.3201 54.6 96.8701 54.6C97.4201 54.6 97.8701 55.05 97.8701 55.6V99.49C97.8701 100.04 97.4201 100.49 96.8701 100.49Z" fill="#003834"/>
<path d="M76.9302 113.38C76.7602 113.38 76.6002 113.34 76.4502 113.26C76.1302 113.08 75.9302 112.75 75.9302 112.38V68.17C75.9302 67.83 76.1002 67.51 76.3902 67.33L113.74 43.36C114.05 43.16 114.44 43.15 114.76 43.32C115.08 43.5 115.28 43.83 115.28 44.2V88.41C115.28 88.75 115.11 89.07 114.82 89.25L77.4702 113.22C77.3102 113.33 77.1202 113.38 76.9302 113.38ZM77.9302 68.71V110.54L113.28 87.86V46.03L77.9302 68.71Z" fill="white"/>
<path d="M58.0602 100.49C57.5102 100.49 57.0602 100.04 57.0602 99.49V56.18C57.0602 55.63 57.5102 55.18 58.0602 55.18C58.6102 55.18 59.0602 55.63 59.0602 56.18V99.49C59.0602 100.04 58.6102 100.49 58.0602 100.49Z" fill="#849E2A"/>
<path d="M76.9301 91.27C76.7501 91.27 76.5601 91.22 76.3901 91.11L39.5201 67.58C39.0501 67.28 38.9201 66.66 39.2201 66.2C39.5201 65.74 40.1301 65.6 40.6001 65.9L77.4701 89.43C77.9401 89.73 78.0701 90.35 77.7701 90.81C77.5801 91.11 77.2601 91.27 76.9301 91.27Z" fill="#849E2A"/>
<path d="M76.9301 113.38C76.7401 113.38 76.5501 113.33 76.3901 113.22L39.0401 89.25C38.7501 89.07 38.5801 88.75 38.5801 88.41L38.3801 44.2C38.3801 43.83 38.5801 43.5 38.9001 43.32C39.2201 43.14 39.6101 43.16 39.9201 43.35L77.4701 67.32C77.7601 67.5 77.9301 67.82 77.9301 68.16V112.37C77.9301 112.74 77.7301 113.07 77.4101 113.25C77.2601 113.33 77.1001 113.37 76.9301 113.37V113.38ZM40.5801 87.86L75.9401 110.54V68.71L40.4001 46.03L40.5901 87.86H40.5801Z" fill="white"/>
<style>
        #change-color { fill: #003834; }
        @media (prefers-color-scheme: dark) {
            #change-color { fill: #FFFFFF; }
        }
    </style>
</svg>

<svg xmlns="http://www.w3.org/2000/svg" width="153" height="153" fill="none" viewBox="0 0 153 153"><path fill="#006d68" d="M29.65 76.44c0-26.01 21.08-47.09 47.09-47.09s47.09 21.08 47.09 47.09h28.78c0-41.9-33.97-75.87-75.87-75.87S.86 34.54.86 76.44z"/><path d="M152.61 76.44h-28.78s-.04 2.27-.12 3.38c-1.73 24.43-22.1 43.71-46.97 43.71-24.97 0-45.4-19.43-46.99-44-.07-1.02-.1-3.09-.1-3.09H.87s.02 2.05.06 3.07c1.61 40.48 34.94 72.8 75.81 72.8 40.66 0 73.85-31.98 75.78-72.16.06-1.23.09-3.71.09-3.71" style="fill:#003834"/><path fill="#cee098" d="M76.93 112.38V68.17L39.38 44.2l.2 44.21z"/><path fill="#849e2a" d="M76.93 112.38V68.17l37.36-23.97v44.21z"/><path fill="#fff" d="M76.93 113.38q-.255 0-.48-.12c-.32-.18-.52-.51-.52-.88V68.17c0-.34.17-.66.46-.84l37.35-23.97c.31-.2.7-.21 1.02-.04.32.18.52.51.52.88v44.21c0 .34-.17.66-.46.84l-37.35 23.97c-.16.11-.35.16-.54.16m1-44.67v41.83l35.35-22.68V46.03z"/><path fill="#acca53" d="M114.29 44.2 76.93 68.17 39.58 44.2l37.35-23.97z"/><path fill="#fff" d="M76.93 69.17c-.19 0-.38-.05-.54-.16L39.04 45.04a.99.99 0 0 1-.46-.84c0-.34.17-.66.46-.84l37.35-23.97c.33-.21.75-.21 1.08 0l37.35 23.97c.29.18.46.5.46.84s-.17.66-.46.84L77.47 69.01c-.17.11-.35.16-.54.16M41.43 44.2l35.5 22.78 35.5-22.78-35.5-22.78z"/><path fill="#fff" d="M58.06 57.18c-.33 0-.65-.16-.84-.46-.3-.46-.16-1.08.3-1.38l37.35-23.97c.46-.3 1.08-.16 1.38.3s.16 1.08-.3 1.38L58.6 57.02c-.17.11-.35.16-.54.16"/><path fill="#003834" d="M76.93 91.55c-.33 0-.65-.16-.84-.46-.3-.46-.16-1.08.3-1.38l36.68-23.54c.46-.3 1.08-.16 1.38.3s.16 1.08-.3 1.38L77.47 91.39c-.17.11-.35.16-.54.16"/><path fill="#fff" d="M96.11 56.86a1 1 0 0 1-.52-.15L57.64 33.37a1.004 1.004 0 0 1 1.05-1.71L96.64 55a1.006 1.006 0 0 1-.52 1.86z"/><path fill="#fff" d="M76.93 69.17c-.19 0-.38-.05-.54-.16L39.04 45.04a.99.99 0 0 1-.46-.84c0-.34.17-.66.46-.84l37.35-23.97c.33-.21.75-.21 1.08 0l37.35 23.97c.29.18.46.5.46.84s-.17.66-.46.84L77.47 69.01c-.17.11-.35.16-.54.16M41.43 44.2l35.5 22.78 35.5-22.78-35.5-22.78z"/><path fill="#003834" d="M96.87 100.49c-.55 0-1-.45-1-1V55.6c0-.55.45-1 1-1s1 .45 1 1v43.89c0 .55-.45 1-1 1"/><path fill="#fff" d="M76.93 113.38q-.255 0-.48-.12c-.32-.18-.52-.51-.52-.88V68.17c0-.34.17-.66.46-.84l37.35-23.97c.31-.2.7-.21 1.02-.04.32.18.52.51.52.88v44.21c0 .34-.17.66-.46.84l-37.35 23.97c-.16.11-.35.16-.54.16m1-44.67v41.83l35.35-22.68V46.03z"/><path fill="#849e2a" d="M58.06 100.49c-.55 0-1-.45-1-1V56.18c0-.55.45-1 1-1s1 .45 1 1v43.31c0 .55-.45 1-1 1"/><path fill="#849e2a" d="M76.93 91.27c-.18 0-.37-.05-.54-.16L39.52 67.58a1 1 0 0 1 1.08-1.68l36.87 23.53c.47.3.6.92.3 1.38-.19.3-.51.46-.84.46"/><path fill="#fff" d="M76.93 113.38c-.19 0-.38-.05-.54-.16L39.04 89.25a.99.99 0 0 1-.46-.84l-.2-44.21a1.006 1.006 0 0 1 1.54-.85l37.55 23.97c.29.18.46.5.46.84v44.21c0 .37-.2.7-.52.88q-.225.12-.48.12zM40.58 87.86l35.36 22.68V68.71L40.4 46.03l.19 41.83z"/></svg>
